!!!COM:	Bach, Johann Sebastian
!!!CDT:	1685/02/21/-1750/07/28/
!!!OTL@@DE:	Ach Gott, wie manches Herzeleid
!!!OTL@EN:	Oh God, how many heart pains
!!!SCT:	BWV 3/6
!!!PC#:	156
!!!hymn: Leipzig, 1625
!!!AGN:	chorale
!!!ONB: Same as No. 308
**kern	**kern	**kern	**kern
*ICvox	*ICvox	*ICvox	*ICvox
*Ibass	*Itenor	*Ialto	*Isoprn
*I"Bass	*I"Tenor	*I"Alto	*I"Soprano
*clefF4	*clefGv2	*clefG2	*clefG2
*k[f#c#g#]	*k[f#c#g#]	*k[f#c#g#]	*k[f#c#g#]
*A:	*A:	*A:	*A:
*M4/4	*M4/4	*M4/4	*M4/4
*met(c)	*met(c)	*met(c)	*met(c)
*MM100	*MM100	*MM100	*MM100
4A	8AL	8c#L	4a
.	8BJ	8dJ	.
=1	=1	=1	=1
8AAL	8c#L	4e	4a
8BBJ	8dJ	.	.
4C#	4e	4A	4a
8DL	4A	4d	8f#L
8EJ	.	.	8g#J
8F#L	8AL	4c#	4a
8EJ	8G#J	.	.
=2	=2	=2	=2
4D#	4F#	4B	8bL
.	.	.	8aJ
4E	8G#L	4e	4g#
.	8AJ	.	.
4BB;	4B;	4d#;	4f#;
8BL	4B	4d#	4f#
8AJ	.	.	.
=3	=3	=3	=3
8G#L	4B	4e	4g#
8AJ	.	.	.
8G#L	4d#	4f#	4a
8F#J	.	.	.
8EL	8G#L	8f#L	4b
8F#J	8AJ	8d#J	.
8G#L	8BL	[4e	8eL
8AJ	8c#J	.	8f#J
=4	=4	=4	=4
4B	4B	8eL]	8g#L
.	.	8f#J	8aJ
4BB	8BL	4d#	4f#
.	8AJ	.	.
4E;	4G#;	4B;	4e;
4E	4e	4g#	4b
=5	=5	=5	=5
8AL	8eL	4a	4cc#
8G#J	8f#J	.	.
8F#L	4g#	4c#	4cc#
8E#J	.	.	.
8F#L	8c#L	8f#L	8aL
8EJ	8dnXJ	8g#J	8bJ
8DL	4e	4a#	4cc#
8C#J	.	.	.
=6	=6	=6	=6
4BB	8f#L	4b	4dd
.	8g#J	.	.
8C#L	4a	8eL	4cc#
8DJ	.	8f#J	.
4E;	4e;	4g#;	4b;
4F#	4c#	4f#	4anX
=7	=7	=7	=7
4G#	4B	8eL	4b
.	.	8dJ	.
4A	8EL	8c#L	4cc#
.	8F#J	8d#J	.
4E	4G#	8eL	4b
.	.	8dJ	.
8F#L	4A	4c#	4a
8EJ	.	.	.
=8	=8	=8	=8
4D#	8BL	4f#	4a
.	8c#J	.	.
4E	4d	4e	4g#
4AA;	4c#;	4e;	4a;
==	==	==	==
*-	*-	*-	*-
!!!hum2abc: -Q ''
!!!title: @{PC#}. @{OTL@@DE}
!!!YOR1: 371 vierstimmige Choralges&auml;nge von Johann Sebastian Bach, 
!!!YOR2: 4th ed. by Alfred D&ouml;rffel (Leipzig: Breitkopf und H&auml;rtel, 
!!!YOR2: c.1875). 178 pp. Plate "V.A.10".  reprint: J.S. Bach, 371 Four-Part 
!!!YOR4: Chorales (New York: Associated Music Publishers, Inc., c.1940).
!!!SMS: B&H, 4th ed, Alfred D&ouml;rffel, c.1875, plate V.A.10
!!!PC#2: 8 (Budapest/Imre, 1982)
!!!EED:  Craig Stuart Sapp
!!!EEV:  2009/05/22
